X:680
T:Mrs. Carroll's Strathspey
R:strathspey
C:Liz Carroll
Z:
M:6/8
K:G
G2 A|:"G"B d2 B2 A|G3 G2c|Bd2 BAG|"Em"E3 G2 A|
"G"B d2 B2 d|"C"e g2 d2 g|"G"e g2 d2 B|"D"A3 A2 a|
"C"g2 f e2 d|"G"(3gbg g b2 a|g2f e2 d|"Em"f g4 d|
"C"c2 B A2 G|"G"B d2 B2 A|G2 E D2 B,|1"D"A,3 A,2 A:|2"D"A,3 A,2 D||
|:"G"G,3 G,3|A, B,2 B,2 A,|G,2 A, B,2 D|"Em"E G2 GAB|
"D"B A2 ABd|"G"AB2 BAG|"C"EG2 D2B,|"D"A,3 A,2 D|
"G"G,3 G,3|A, B,2 B,2 A,|G,2 A, B,2 D|"Em"E G2 G2A|
"C"B2 A A2 G|"G"B d2 B2 A|"Em"G2 E D2 B,|1"D"A,3 A,2 D:|2"D"A,3 A,2 A||
